!!!!SEGMENT: pl-wn--mus-iii-161-977--001_zelenski-wladyslaw--humoreske-und-gavotte-op-18-humoreske.krn
!!!cenid: 18xx:3686
!!!COM: Żeleński, Władysław
!!!COM-rismID: pe41024455
!!!CDT: 1837/07/06-1921/01/23
!!!CNT: Polish
!!!GTL: Humoreske und gavotte op. 18
!!!OTL: Humoreske
!!!PDT:
!!!AGN:
!!!SMS-siglum: PL-Wn
!!!SMS-shelfmark: Mus.III.161.977
!!!SMS-shelfwork: 001 G
!!!SMS-variant:
!!!SMS-altvar:
!!!NIFC-rismSourceID:
!!!NIFC-rismChildID:
!!!NIFC-islandoraID:
!!!URL-pdf-islandora:
!!!URL-scan: https://polona.pl/item/humoreske-und-gavotte-zwei-stucke-fur-clavier-zu-zwei-handen-op-18,Mzg2MTYzNDQ/0 @EN{Scan on Polona} @PL{Skany w portalu Polona}
!!!ONB-nifc:
!!!OMD: Presto. [quarter] = 152
!!!AIN: 2 piano
!!!key: B-
**kern	**kern	**dynam
*part2	*part1	*part1
*staff2	*staff1	*
*I"[Pianoforte]	*I"[Pianoforte]	*
*Ipiano	*Ipiano	*
*ICklav	*ICklav	*
*clefF4	*clefG2	*
*k[b-e-]	*k[b-e-]	*
*B-:	*B-:	*
*M2/4	*M2/4	*
=1	=1	=1
*xywh-#3:335,308,2364,882	*xywh-#3:335,308,2364,882	*
!	!	!LO:DY:t=%s leggiero
(8BB-/	8r	p
4F\)	[8d^/L	.
.	16d/L]	.
.	16d-X/	.
8F'\	16c/	.
.	16B-/JJ	.
=2	=2	=2
(8C/	16G#X/LL	.
.	16A/	.
4F\)	16B-/	.
.	16Bn/JJ	.
.	16c/LL	.
.	16c#X/	.
8F'\	16d/	.
.	16e-/JJ	.
=3	=3	=3
(8D\	16en/LL	<
.	16f/	.
4B-\)	16f#X/	.
.	16dd/JJ	.
.	16cc/LL	.
.	16b-/	.
8c 8B- 8En'\	16a/	[[
.	16g/JJ	.
=4	=4	=4
(8F\L	16g/LL	>
.	16g-X/	.
8cJ 8A\	16f/	.
.	16en/JJ	.
8AA\L	16e-X/LL	.
.	16d/	.
8F\J)	16d-X/	.
.	16c/JJ	]
!!linebreak:original
=5	=5	=5
*^	*	*
*xywh-#3:357,1234,2357,514	*xywh-#3:357,1234,2357,514	*xywh-#3:357,1234,2357,514	*
8BB-/	(4.BB-\	16d/LL	<
.	.	16A/	.
4.F/	.	16B-/	.
.	.	16d/JJ	.
.	.	16e-/LL	.
.	.	16A/	.
.	8C\)	16B-/	.
.	.	16e-/JJ	.
=6	=6	=6	=6
8C#X/	(4.C#\	16en/LL	.
.	.	16A/	.
4.F/	.	16B-/	.
.	.	16e/JJ	.
.	.	16f/LL	.
.	.	16A/	.
.	8D\)	16B-/	[
.	.	16f/JJ	.
=7	=7	=7	=7
8E-/	(4.E-\	16a/LL	.
.	.	16c/	.
4.B-/	.	16d-X/	.
.	.	16a/JJ	.
.	.	16g/LL	.
.	.	16c/	.
.	8En\)	16d-/	.
.	.	16g/JJ	.
=8	=8	=8	=8
(<8F/L	4F\	16f/LL	>
.	.	16Bn/	.
8A/J)	.	16c/	.
.	.	16f/JJ	.
8r	4ryy	16en/LL	.
.	.	16e-X/	.
8FF/	.	16d/	]]
.	.	16c/JJ	.
*v	*v	*	*
!!linebreak:original
=9	=9	=9
*xywh-#3:357,1808,2338,511	*xywh-#3:357,1808,2338,511	*
(8BB-/	8r	.
4F\)	[8d^/L	.
.	16d/L]	.
.	16d-X/	.
8F'\	16c/	.
.	16B-/JJ	.
=10	=10	=10
(8C/	16G#X/LL	.
.	16A/	.
4F\)	16B-/	.
.	16Bn/JJ	.
.	16c/LL	.
.	16c#X/	.
8F'\	16d/	.
.	16e-/JJ	.
=11	=11	=11
(8D\	16en/LL	.
!	!	!LO:HP:t=cresc.un poco
.	16f/	<
4B-\)	16f#X/	.
.	16dd/JJ	.
.	16cc/LL	.
.	16b-/	.
8c 8B- 8En'\	16a/	.
.	16g/JJ	.
=12	=12	=12
(8F\	16g#X\LL	.
.	16a\	.
4c 4A\)	16cc\	.
.	16ee-\JJ	.
.	16dd\LL	.
.	16cc\	.
8d 8c 8F#X'\	16b-\	.
.	16a\JJ	.
!!linebreak:original
=13	=13	=13
*xywh-#3:341,2317,2367,565	*xywh-#3:341,2317,2367,565	*
(8G\L	8r	.
8dJ 8B-\	[8b-^\L	.
8G#X\L	16b-\L]	.
.	16dd\	.
8enJ 8d\	16een\	.
.	16bb-\JJ	.
=14	=14	=14
*	*^	*
*	*	*xywh-#3:341,2317,2367,565	*
8A\L	16bb-\LL	4ryy	.
.	16aa\	.	.
8gJ 8c#X\	16gg#X\	.	.
.	16ggn\JJ	.	.
!	!	!	!LO:HP:a
8d\L	16gg/LL	4a\	>
.	16ff/	.	.
8f\J)	16een/	.	.
.	16dd/JJ	.	]
*	*v	*v	*
=15	=15	=15
(8G\L	8r	.
8enJ 8d\	[8b-^\L	.
8G#X\L	16b-\L]	.
.	16dd\	.
8eJ 8d\	16een\	.
.	16bb-\JJ	.
=16	=16	=16
*	*^	*
*	*	*xywh-#3:341,2317,2367,565	*
8A\L	16bb-\LL	4ryy	.
.	16aa\	.	.
8gJ 8c#X\	16gg#X\	.	.
.	16ggn\JJ	.	.
!	!	!	!LO:HP:a
8d\L	16gg/LL	4bn\	>
.	16ff/	.	.
8f\J)	16een/	.	.
.	16dd/JJ	.	]
*	*v	*v	*
!!linebreak:original
*clefG2	*	*
=17	=17	=17
*xywh-#3:325,2970,2364,561	*xywh-#3:325,2970,2364,561	*
!	!	!LO:DY:t=%s legg.
(8en/L	16dd\LL	p
!	!LO:TX:b:t=legg.	!
.	16cc\	.
8g/	16bn\	.
.	16cc\JJ	.
8e-X/	16gg\LL	.
.	16ff\	.
8f/J	16een\	.
.	16ff\JJ	.
=18	=18	=18
8d/L	16a\LL	.
.	16b-\	.
8f/	16cc\	.
.	16b-\JJ	.
8c/	16g#X/LL	.
.	16a/	.
8f/J)	16b-/	.
.	16a/JJ	.
*clefF4	*	*
=19	=19	=19
(8B-\	16f#X/LL	<
.	16gn/	.
4d\)	16an/	.
.	16g/JJ	.
.	16een\LL	.
.	16dd\	[
8d'\	16b-\	.
.	16g\JJ	.
=20	=20	=20
(8C\L	16fn/LL	>
.	16en/	.
8B-J 8G\	16d/	.
.	16e/JJ	.
8A 8F\)	8f/	]
8r	8r	.
!!pagebreak:original
=21:|!|:	=21:|!|:	=21:|!|:
*xywh-#4:410,442,2367,551	*xywh-#4:410,442,2367,551	*
8FF\L	4r	p
[8A-X^\J	.	.
16A-\LL]	8dL 8Bn'/	.
16G\	.	.
16F#X\	8e-J 8c'/	.
16G\JJ	.	.
=22	=22	=22
*	*^	*
*	*	*xywh-#4:410,442,2367,551	*
16A-X\LL	4ryy	8gL 8e-'\	.
16G\	.	.	.
16F#X\	.	8f 8d'\	.
16G\JJ	.	.	.
16A-\LL	[4ee-^/	(>8ee-\	.
16G\	.	.	.
16F#\	.	8a-XJ 8f\)	.
16G\JJ	.	.	.
=23	=23	=23	=23
16A-X\LL	4ee-/]	(>8ee-\L	.
16G\	.	.	.
16F#X\	.	8a-XJ 8f\)	.
16G\JJ	.	.	.
16A-\LL	4dd/	(>8dd\L	.
16G\	.	.	.
16F#\	.	8a-J 8f\)	.
16G\JJ	.	.	.
=24	=24	=24	=24
16A-X\LL	4bn/	(>8b\L	.
16G\	.	.	.
16F#X\	.	8fJ 8d\)	.
16G\JJ	.	.	.
16A-\LL	4cc/	(>8cc\L	.
16G\	.	.	.
16E-\	.	8e-J 8c\)	.
16C\JJ	.	.	.
*	*v	*v	*
=25	=25	=25
8FF\L	4r	.
[8G-X^\J	.	.
16G-\LL]	8cL 8A'/	.
16F\	.	.
16En\	8d-XJ 8B-'/	.
16F\JJ	.	.
!!linebreak:original
=26	=26	=26
*	*^	*
*xywh-#4:422,966,2371,520	*xywh-#4:422,966,2371,520	*xywh-#4:422,966,2371,520	*
16G-X\LL	8fL 8d-X'/	4ryy	.
16F\	.	.	.
16En\	8e-J 8c'/	.	.
16F\JJ	.	.	.
16G-\LL	[4dd-X^/	(>8dd-\L	.
16F\	.	.	.
16E\	.	8g-XJ 8e-\)	.
16F\JJ	.	.	.
=27	=27	=27	=27
16G-\LL	4dd-/]	(>8dd-y\L	.
16F\	.	.	.
16En\	.	8g-XJ 8e-\)	.
16F\JJ	.	.	.
16G-\LL	4cc/	(>8cc\L	.
16F\	.	.	.
16E\	.	8g-J 8e-\)	.
16F\JJ	.	.	.
=28	=28	=28	=28
16G-X\LL	4a/	(>8a\L	.
16F\	.	.	.
16En\	.	8e-J 8c\)	.
16F\JJ	.	.	.
16G-\LL	4b-/	(>8b-\L	.
16F\	.	.	.
16D-X\	.	8d-XJ 8B-\)	.
16BB-\JJ	.	.	.
*	*v	*v	*
=29	=29	=29
8FF/	8r	.
(4c#X [4A\	16gg#X\LL	f
.	16aa\JJ	.
.	16bb-\LL	.
.	16aa\	.
8d/	16ggn\	.
.	16ff\JJ	.
=30	=30	=30
*^	*	*
*	*xywh-#4:422,966,2371,520	*	*
4.a/	2A\]	16gg\LL	.
.	.	16ff\	.
.	.	16een\	.
.	.	16dd\JJ	.
.	.	16gg\LL	.
.	.	16ff\	.
8f/)	.	16ee\	.
.	.	16dd\JJ	.
!!linebreak:original
=31	=31	=31	=31
*xywh-#4:414,1468,2432,532	*xywh-#4:414,1468,2432,532	*xywh-#4:414,1468,2432,532	*
8GG/	8ryy	8r	.
(4d#X/	[4.B-\	16aa\LL	.
.	.	16bb-\JJ	.
.	.	16ccc\LL	.
.	.	16bb-\	.
8en/	.	16aa\	.
.	.	16gg\JJ	.
=32	=32	=32	=32
4.b-/	2B-\]	16aa\LL	.
.	.	16gg\	.
.	.	16ff\	.
.	.	16een\JJ	.
.	.	16aa\LL	.
.	.	16gg\	.
8g/)	.	16ff\	.
.	.	16ee\JJ	.
*v	*v	*	*
=33	=33	=33
(8G\L	(16b-\LL	p
.	16ff\	.
8g\J	16een\	.
.	16b-\JJ	.
8G#X\L	16bn\LL	.
.	16ee\	.
8f\J	16dd\	.
.	16b\JJ)	.
=34	=34	=34
8A\L	16a\LL	.
.	16dd\	.
8en\J	16cc#X\	.
.	16a\JJ	.
8Bn\L	16g#X\LL	.
.	16een\	.
8d\J)	16dd\	.
.	16g#\JJ	.
=35	=35	=35
(8A\L	16f/LL	.
.	16b-X/	.
8d\J	16a/	.
.	16f/JJ	.
8AA\L	16d/LL	.
.	16g/	.
8A\J	16f/	.
.	16d/JJ	.
!!linebreak:original
=36	=36	=36
*xywh-#4:448,1981,2371,566	*xywh-#4:448,1981,2371,566	*
8AA\L	16c#X/LL	.
.	16f/	.
8G\J	16en/	.
.	16c#/JJ	.
8F 8D\)	16d/LL	.
.	16f/	.
8r	16a/	.
.	16dd/JJ	.
=37	=37	=37
*^	*	*
*	*xywh-#4:448,1981,2371,566	*	*
8AA-X/	8ryy	8r	.
(4en/	[4.c\	16bbn\LL	f
.	.	16ccc\JJ	.
.	.	16ddd-X\LL	.
.	.	16ccc\	.
8f/	.	16bb-X\	.
.	.	16aa-X\JJ	.
=38	=38	=38	=38
4.cc/	2c\]	16bb-\LL	.
.	.	16aa-X\	.
.	.	16gg\	.
.	.	16ff\JJ	.
.	.	16bb-\LL	.
.	.	16aa-\	.
8a-X/)	.	16gg\	.
.	.	16ff\JJ	.
=39	=39	=39	=39
8BB-/	8ryy	8r	.
*clefG2	*	*	*
(4f/	[4.d-X\	16ccc\LL	.
.	.	16ddd-X\JJ	.
.	.	16eee-X\LL	.
.	.	16ddd-\	.
8g-X/	.	16ccc\	.
.	.	16bb-\JJ	.
=40	=40	=40	=40
4.dd-X/	2d-\]	16ccc\LL	.
.	.	16bb-\	.
.	.	16aa-X\	.
.	.	16gg-X\JJ	.
.	.	16ccc\LL	.
.	.	16bb-\	.
8b-/)	.	16aa-\	.
.	.	16gg-\JJ	.
*v	*v	*	*
!!linebreak:original
=41	=41	=41
*xywh-#4:403,2532,2485,532	*xywh-#4:403,2532,2485,532	*
(8c/L	16ee-\LL	p
.	16aa-X\	.
8b--/J	16gg-X\	.
.	16ee-\JJ	.
8d-X/L	16dd-X\LL	.
.	16gg-\	.
8a-X/J	16ff\	.
.	16dd-\JJ	.
=42	=42	=42
8An/L	16cc\LL	.
.	16ff\	.
8g-X/J	16ee-\	.
.	16cc\JJ	.
8B-/L	16b-\LL	.
.	16ee-\	.
8f/J)	16dd-X\	.
.	16b-\JJ	.
=43	=43	=43
(8An/L	16cc\LL	.
.	16ff\	.
8g-X/J	16ee-\	.
.	16cc\JJ	.
8B-/L	16b-\LL	.
.	16ee-\	.
8f/J	16dd-X\	.
.	16b-\JJ	.
*clefF4	*	*
=44	=44	=44
8F\L	16a-X\LL	.
.	16dd-X\	.
8e--\J	16cc-X\	.
.	16a-\JJ	.
8G-X\L	16g-X\LL	.
.	16cc-\	.
8d-X\J)	16b-\	.
.	16g-\JJ	.
=45	=45	=45
(8F\L	16a-X\LL	.
.	16dd-X\	.
8e--\J	16cc-X\	.
.	16a-\JJ	.
8G-X\L	16g-X\LL	.
.	16cc-\	.
8d-X\J)	16b-\	.
.	16g-\JJ	.
!!linebreak:original
=46	=46	=46
*xywh-#4:425,3010,2409,532	*xywh-#4:425,3010,2409,532	*
!	!LO:TX:t=P:problem:dur=7qe:ext=ud:problem=text with extention lines	!
(8Dn\L	16f/LL	<
.	16b-/	.
8c-X\J	16a-X/	.
.	16f/JJ	.
8E-\L	16e-/LL	.
.	16a-/	.
8B-\J)	16g-X/	.
.	16e-/JJ	.
=47	=47	=47
(8D\L	16f/LL	.
.	16b-/	.
8c-X\J	16a-X/	.
.	16f/JJ	.
8E-\L	16e-/LL	.
.	16a-/	.
8B-\J)	16g-X/	.
.	16e-/JJ	.
=48	=48	=48
(8F\L	16d-X/LL	.
.	16g-X/	.
8B-\J	16f/	.
.	16d-/JJ	.
8G-X\L	16c/LL	.
.	16f/	.
8B-\J	16en/	.
.	16c/JJ	.
=49	=49	=49
8An\)	8f/	.
(8F\	8r	.
4c 4A^\)	(16eee-\LL	ff
.	16ddd\	.
.	16ddd-X\	.
.	16ccc\JJ	.
=50	=50	=50
8r	16ccc-X\LL	.
.	16bb-\	.
(8G-X\	16aa\	.
.	16aa-X\JJ	.
4e- 4B-\)	16gg\LL	.
.	16gg-X\	.
.	16ff\	.
.	16een\JJ	.
!!pagebreak:original
=51	=51	=51
*xywh-#5:322,400,2447,546	*xywh-#5:322,400,2447,546	*
8r	16ee-X\LL	.
.	16dd\	.
(<8FF/	16dd-X\	.
.	16cc\JJ	.
4A 4C\)	16cc-X\LL	.
.	16b-\	.
.	16an\	.
.	16a-X\JJ	.
=52	=52	=52
8r	16g/LL	.
.	16g-X/	.
(<8GG-X/	16f/	.
.	16en/JJ	.
4B- 4E-\)	16e-X/LL	.
.	16d/	.
.	16d-X/	.
.	16c/JJ)	.
*	*clefF4	*
=53	=53	=53
8r	(16c-X\LL	.
.	16B-\	.
8FFF/	16A\	.
.	16A-X\JJ	.
[4FF/	16G\LL	.
.	16G-X\	.
.	16F\	.
.	16En\JJ	.
=54	=54	=54
4FF/]	16E-X\LL	.
.	16D\	.
.	16D-X\	.
.	16C\JJ	.
[4EE-/	16C-X/LL	.
.	16BB-/	.
.	16AA-X/	.
.	16GG-X/JJ	.
=55	=55	=55
4EE-/]	16FF/LL	.
.	16EEn/	.
.	16FF/	.
.	16FF#X/JJ	.
[4CC/	16GGn/LL	.
.	16FFn/	.
.	16FF#X/	.
.	16GG/JJ)	.
!!linebreak:original
=56	=56	=56
*xywh-#5:290,914,2493,586	*xywh-#5:290,914,2493,586	*
4CC/]	(16AA-X/LL	.
.	16GG/	.
.	16AA-/	.
.	16AAn/JJ	.
(4AAA/	16BB-/LL	.
.	16AA/	.
.	16BB-/	.
.	16BBn/JJ	.
=57	=57	=57
!	!LO:TX:t=P:problem=text with extention lines	!LO:HP:t=dimin. poco a poco
8FFF/)	16C/LL	>
.	16BBn/	.
8r	16C/	.
.	16C#X/JJ	.
4r	16D/LL	.
.	16Cn/	.
.	16C#X/	.
.	16D/JJ	.
=58	=58	=58
2r	16E-\LL	.
.	16D\	.
.	16E-\	.
.	16En\JJ	.
.	16F\LL	.
.	16E\	.
.	16F\	.
.	16F#X\JJ	.
=59	=59	=59
2r	16G\LL	.
.	16Fn\	.
.	16F#X\	.
.	16G\JJ	.
.	16A-X\LL	.
.	16G\	.
.	16A-\	.
.	16An\JJ	.
*	*clefG2	*
=60	=60	=60
2r	16B-/LL	.
.	16A/	.
.	16B-/	.
.	16Bn/JJ	.
.	16c/LL	.
.	16B/	.
.	16c/	.
.	16c#X/JJ)	.
!!linebreak:original
=61	=61	=61
*xywh-#5:322,1442,2438,491	*xywh-#5:322,1442,2438,491	*
2r	(16d/LL	.
.	16cn/	.
.	16c#X/	.
.	16d/JJ	.
.	16e-/LL	.
.	16Bn/	.
.	16cn/	.
.	16c#X/JJ)	.
=62	=62	=62
2r	(16d/LL	.
.	16cn/	.
.	16c#X/	.
.	16d/JJ	.
.	16e-/LL	.
.	16Bn/	.
.	16cn/	.
.	16c#X/JJ)	.
=63	=63	=63
2r	(16d/LL	.
.	16cn/	.
.	16c#X/	.
.	16d/JJ	.
.	16e-/LL	.
.	16Bn/	.
.	16cn/	.
.	16c#X/JJ)	.
=64	=64	=64
2r	(16d/LL	.
.	16cn/	.
.	16c#X/	.
.	16d/JJ	.
.	16e-/LL	.
.	16Bn/	.
.	16cn/	.
.	16c#X/JJ)	.
=65	=65	=65
!	!	!LO:DY:t=%s legg.
(8BB-/	8d/	pp
4F\)	[8d^^/L	.
.	16d/L]	.
.	16d-X/	.
8F'\	16c/	.
.	16B-/JJ	.
!!linebreak:original
=66	=66	=66
*xywh-#5:363,1901,2375,577	*xywh-#5:363,1901,2375,577	*
(8C/	16G#X/LL	.
.	16A/	.
4F\)	16B-/	.
.	16Bn/JJ	.
.	16c/LL	.
.	16c#X/	.
8F'\	16d/	.
.	16e-/JJ	.
=67	=67	=67
(8D\	16en/LL	.
.	16f/	.
4B-\)	16f#X/	.
.	16dd/JJ	.
.	16cc/LL	.
.	16b-/	.
8c 8B- 8En'\	16a/	.
.	16g/JJ	.
=68	=68	=68
(8F\L	16g/LL	.
.	16g-X/	.
8cJ 8A\	16fn/	.
.	16en/JJ	.
8AA\L	16e-X/LL	.
.	16d/	.
8F\J)	16d-X/	.
.	16c/JJ	.
=69	=69	=69
!	!	!LO:HP:t=cresc. poco a poco
(8AA-X\L	16d/LL	<
.	16A/	.
8A-X\J	16B-/	.
.	16d/JJ	.
8GG\L	16e-/LL	.
.	16A/	.
8G\J)	16B-/	.
.	16e-/JJ	.
=70	=70	=70
(8GG-X\L	16en/LL	.
.	16A/	.
8G-X\J	16B-/	.
.	16e/JJ	.
8FF\L	16f/LL	.
.	16A/	.
8F\J)	16B-/	.
.	16f/JJ	.
!!linebreak:original
=71	=71	=71
*xywh-#5:327,2443,2411,577	*xywh-#5:327,2443,2411,577	*
(8EEn/L	16a/LL	.
.	16c/	.
8En/J	16c#X/	.
.	16a/JJ	.
8EE-X/L	16g/LL	.
.	16cn/	.
8E-X/J)	16c#X/	.
.	16g/JJ	.
=72	=72	=72
(8DD/L	16b-/LL	<
.	16d/	.
8D/J	16f#X/	.
.	16b-/JJ	.
8CC/L	16a/LL	.
.	16d/	.
8C/J	16f#/	.
.	16a/JJ	[[
=73	=73	=73
8BBB-/)	8ddL 8g 8d/	f
8r	[8dd^>/J	.
(8G\L	16dd\LL]	.
.	16cc#X\	.
8enJ 8d\	16dd\	.
.	16bb-\JJ	.
=74	=74	=74
*	*^	*
*	*	*xywh-#5:327,2443,2411,577	*
8A\L	16bb-\LL	4ryy	.
.	16aa\	.	.
8gJ 8c#X\	16gg#X\	.	.
.	16ggn\JJ	.	.
8D\L	16gg/LL	4a\	.
.	16ff/	.	.
8fJ 8d\)	16een/	.	.
.	16dd/JJ	.	.
*	*v	*v	*
*clefG2	*	*
=75	=75	=75
(8Bn/L	8r	.
8gJ 8e-/	[8ee-X^\L	.
8c/L	16ee-\L]	.
.	16gg\	.
8aJ 8g 8e-/	16aa\	.
.	16eee-\JJ	.
!!linebreak:original
=76	=76	=76
*	*^	*
*xywh-#5:286,2925,2534,568	*xywh-#5:286,2925,2534,568	*xywh-#5:286,2925,2534,568	*
8d/L	16eee-\LL	4ryy	.
.	16ddd\	.	.
8aJ 8f#X/	16ccc#X\	.	.
.	16cccn\JJ	.	.
8g/L	16ccc/LL	4een\	.
.	16bb-/	.	.
8b-/J)	16aa/	.	.
.	16gg/JJ	.	.
*	*v	*v	*
=77	=77	=77
(8a/L	16gg\LL	p
.	16ff\	.
8cc/	16een\	.
.	16ff\JJ	.
8a-X/	16ccc\LL	.
.	16bb-\	.
8b-/J	16aa\	.
.	16bb-\JJ	.
=78	=78	=78
8g/L	16dd\LL	.
.	16ee-X\	.
8b-/	16ff\	.
.	16ee-\JJ	.
8f/	16cc#X\LL	.
.	16dd\	.
8b-/J)	16ee-\	.
.	16dd\JJ	.
=79	=79	=79
(8e-/	16bn\LL	<
.	16ccn\	.
4g/)	16dd\	.
.	16cc\JJ	.
.	16aa\LL	.
.	16gg\	.
8g/	16ee-\	.
.	16cc\JJ	[
*clefF4	*	*
=80	=80	=80
(8F\L	16b-X/LL	>
.	16a/	.
8e-J 8c\	16g/	.
.	16a/JJ	.
8d 8B-\)	8b-/	]
8r	8r	.
!!pagebreak:original
=81:|!	=81:|!	=81:|!
*xywh-#6:375,446,2527,696	*xywh-#6:375,446,2527,696	*
*ped	*	*
!	!LO:TX:a:B:t=Stesso tempo ad appassionato.	!LO:DY:a=2
8EE- 8EEE-/	4r	f
8r	.	.
(4g 4e- 4Bn^\	(4gg 4ee- 4bn^\	.
=82	=82	=82
*^	*^	*
*Xped	*	*	*	*
*Xtuplet	*	*Xtuplet	*	*
*	*xywh-#6:375,446,2527,696	*	*xywh-#6:375,446,2527,696	*
12f/L	8c\	12ff/L	8cc\	.
12e-/	.	12ee-/	.	>
.	4.ryy	.	4.ryy	.
12d/J	.	12dd/J	.	.
12c/L	.	12cc/L	.	.
12d/	.	12dd/	.	.
12e-/J)	.	12ee-/J)	.	]
*v	*v	*	*	*
*	*v	*v	*
=83	=83	=83
!	!LO:TX:b:i:t=espressivo	!
(4G\	(4g/	.
12A\L	12a/L	.
12B-\	12b-/	.
12c\J	12cc/J	.
=84	=84	=84
*^	*^	*
*	*	*	*^	*
*	*xywh-#6:375,446,2527,696	*	*xywh-#6:375,446,2527,696	*xywh-#6:375,446,2527,696	*
4d/	2D\	2dd/	4b-\	2f#X\	.
4c/)	.	.	4a\	.	.
*	*	*v	*v	*v	*
=85	=85	=85	=85
!	!	!	!LO:HP:b=2
(12G/L	4E-\	12g\L	<
12B-/	.	12b-\	.
[12d/J	.	[12dd\J	.
12d/L]	4En\	12dd\L]	.
12c/	.	12cc\	.
12B-/J	.	12b-\J	.
=86	=86	=86	=86
12A/L	4F\	12a\L	.
12c/	.	12cc\	.
[12e-/J	.	[12ee-\J	.
12e-/L]	4F#X\	12ee-\L]	.
12d/	.	12dd\	.
12c/J)	.	12cc\J)	.
*clefG2	*	*	*
!!linebreak:original
=87	=87	=87	=87
*xywh-#6:388,1065,2500,705	*xywh-#6:388,1065,2500,705	*xywh-#6:388,1065,2500,705	*
(12B-/L	8G\	(12b-\L	<
12d/	.	12dd\	.
.	4.ryy	.	.
12f/J	.	12ff\J	.
12e-/L	.	12ee-\L	.
12g/	.	12gg\	.
12b-/J	.	12bb-\J	[[
*v	*v	*	*
=88	=88	=88
12a/L	12aa\L	>
12g/	12gg\	.
12c#X/J	12cc#X\J	.
8d/L)	8dd\)	.
*clefF4	*	*
8DJ 8DD'/	8r	]
=89	=89	=89
*ped	*	*
!	!	!LO:DY:a=2
8EE- 8EEE-/	4r	f
8r	.	.
(4g 4e- 4Bn^<\	(4gg 4ee- 4bn^\	.
=90	=90	=90
*^	*^	*
*	*xywh-#6:388,1065,2500,705	*	*	*
*Xped	*	*	*	*
*	*	*	*xywh-#6:388,1065,2500,705	*
12f/L	8c\	12ff/L	8cc\	>
12e-/	.	12ee-/	.	.
.	4.ryy	.	4.ryy	.
12d/J	.	12dd/J	.	.
12c/L	.	12cc/L	.	.
12d/	.	12dd/	.	.
12e-/J)	.	12ee-/J)	.	]
*v	*v	*	*	*
*	*v	*v	*
=91	=91	=91
*ped	*	*
!	!	!LO:DY:a=2
8FF 8FFF/	4r	f
*Xped	*	*
8r	.	.
*clefG2	*	*
(>4a 4f 4c#X^>/	(4aa 4ff 4cc#X^\	.
=92	=92	=92
*^	*^	*
*	*xywh-#6:388,1065,2500,705	*	*	*
*	*	*	*xywh-#6:388,1065,2500,705	*
12g/L	8d\	12gg/L	8dd\	>
12f/	.	12ff/	.	.
.	4.ryy	.	4.ryy	.
12en/J	.	12een/J	.	.
12d/L	.	12dd/L	.	.
12e/	.	12ee/	.	.
12f/J)	.	12ff/J)	.	]
*	*	*v	*v	*
!!linebreak:original
=93	=93	=93	=93
*xywh-#6:361,1644,2555,733	*xywh-#6:361,1644,2555,733	*xywh-#6:361,1644,2555,733	*
(12B-/L	8G\	(12b-\L	<
12d/	.	12dd\	.
.	4.ryy	.	.
12f/J	.	12ff\J	.
12e-X/L	.	12ee-X\L	.
12d/	.	12dd\	.
12e-/J)	.	12ee-\J)	.
*v	*v	*	*
=94	=94	=94
(>12g/L	(12gg\L	.
12cc/	12ccc\	.
12b-/J	12bb-\J	[
12g/L	12gg\L	>
12e-/	12ee-\	.
12B-/J)	12b-\J)	.
*clefF4	*	*
=95	=95	=95
*^	*^	*
*	*	*	*^	*
*	*xywh-#6:361,1644,2555,733	*	*xywh-#6:361,1644,2555,733	*xywh-#6:361,1644,2555,733	*
(4A/	4A\	2a/	(>4.f\	2c#X\	.
4G/	4AA\	.	.	.	.
.	.	.	8en\	.	]]
*v	*v	*	*	*	*
*	*v	*v	*v	*
=96	=96	=96
8F 8D\)	8d/)	.
8r	8r	.
4r	4r	.
=97:|!|:	=97:|!|:	=97:|!|:
*ped	*	*
!	!	!LO:DY:a=2
8AA-X 8AAA-X/	4r	f
8r	.	.
*clefG2	*	*
(>4cc 4a-X 4en/	(4ccc 4aa-X 4een^\	.
=98	=98	=98
*^	*^	*
*	*xywh-#6:361,1644,2555,733	*	*xywh-#6:361,1644,2555,733	*
*Xped	*	*	*	*
12b-/L	8f\	12bb-/L	8ff\	>
12a-X/	.	12aa-X/	.	.
.	4.ryy	.	4.ryy	.
12g/J	.	12gg/J	.	.
12f/L	.	12ff/L	.	.
12g/	.	12gg/	.	.
12a-/J)	.	12aa-/J)	.	]]
*v	*v	*	*	*
*	*v	*v	*
!!linebreak:original
=99	=99	=99
*xywh-#6:329,2286,2555,710	*xywh-#6:329,2286,2555,710	*
(4c/	(4cc\	<
12d/L	12dd\L	.
12e-/	12ee-\	.
12f/J	12ff\J	.
=100	=100	=100
*^	*^	*
*	*xywh-#6:329,2286,2555,710	*	*xywh-#6:329,2286,2555,710	*
2g/	4G\	2gg 2bn/	4ee-\	.
.	4F\)	.	4dd\)	[[
*v	*v	*	*	*
*	*v	*v	*
*clefF4	*	*
=101	=101	=101
*ped	*	*
8EE- 8EEE-/	4r	f
8r	.	.
(4g 4e- 4Bn^<\	(4gg 4ee- 4bn^\	.
=102	=102	=102
*^	*^	*
*Xped	*	*	*	*
*	*xywh-#6:329,2286,2555,710	*	*xywh-#6:329,2286,2555,710	*
12f/L	8c\	12ff/L	8cc\	>
12e-/	.	12ee-/	.	.
.	4.ryy	.	4.ryy	.
12d/J	.	12dd/J	.	.
12c/L	.	12cc/L	.	.
12d/	.	12dd/	.	.
12e-/J)	.	12ee-/J)	.	]
*v	*v	*	*	*
*	*v	*v	*
=103	=103	=103
(4G\	(>4g/	<
12A\L	12a/L	.
12B-\	12b-/	.
12c\J	12cc/J	.
=104	=104	=104
*^	*^	*
*	*xywh-#6:329,2286,2555,710	*	*xywh-#6:329,2286,2555,710	*
2d/	4D\	2dd 2f#X/	4b-\	.
.	4C\)	.	4a\)	[
*v	*v	*	*	*
*	*v	*v	*
=105	=105	=105
*ped	*	*
8BB- 8BBB-/	4r	.
8r	.	.
(4d 4B- 4F#X^\	(>4dd 4b- 4f#X^>/	f
!!linebreak:original
=106	=106	=106
*^	*^	*
*xywh-#6:288,2914,2719,701	*xywh-#6:288,2914,2719,701	*xywh-#6:288,2914,2719,701	*xywh-#6:288,2914,2719,701	*
*Xped	*	*	*	*
12c/L	8G\	12cc/L	8g\	.
12B-/	.	12b-/	.	.
.	4.ryy	.	4.ryy	.
12A/J	.	12a/J	.	.
12G/L	.	12g/L	.	.
12A/	.	12a/	.	.
12B-/J)	.	12b-/J)	.	.
*v	*v	*	*	*
*	*v	*v	*
=107	=107	=107
*ped	*	*
8FF#X 8FFF#X/	4r	.
8r	.	.
(4d 4B- 4F#X^\	(>4dd 4b- 4f#X^>/	.
*Xped	*	*
=108	=108	=108
*^	*^	*
*xywh-#6:288,2914,2719,701	*xywh-#6:288,2914,2719,701	*xywh-#6:288,2914,2719,701	*xywh-#6:288,2914,2719,701	*
12c/L	8G\	12cc/L	8g\	.
12B-/	.	12b-/	.	.
.	4.ryy	.	4.ryy	.
12A/J	.	12a/J	.	.
12G/L	.	12g/L	.	.
12A/	.	12a/	.	.
12B-/J)	.	12b-/J)	.	.
*v	*v	*	*	*
*	*v	*v	*
=109	=109	=109
*ped	*	*
!	!	!LO:DY:a=2
8FFn 8FFFn/	4r	f
8r	.	.
(4d 4A 4Fn\	(4dd 4a 4fn^>/	f
=110	=110	=110
*^	*^	*
*xywh-#6:288,2914,2719,701	*xywh-#6:288,2914,2719,701	*xywh-#6:288,2914,2719,701	*xywh-#6:288,2914,2719,701	*
*Xped	*	*	*	*
12c/L	8G#X 8En\	12cc/L	8g#X 8en\	.
12Bn/	.	12bn/	.	>
.	4.ryy	.	4.ryy	.
12A/J	.	12a/J	.	.
12G#X/L	.	12g#X/L	.	.
12A/	.	12a/	.	.
12B/J)	.	12b/J)	.	]]
=111	=111	=111	=111	=111
!LO:TX:b:i:t=Da Capo le prime due\nparte e poi Coda.	!	!	!	!
(2c/	4E-X\	([4cc/	4gn\	p
.	4D\	12cc/L]	4f#X\	.
.	.	12b-X/	.	.
.	.	12a/J	.	.
*v	*v	*	*	*
*	*v	*v	*
=112	=112	=112
8B- 8G\)	8g/)	.
8r	8r	.
4r	4r	.
!!pagebreak:original
=113:|!	=113:|!	=113:|!
*^	*	*
*xywh-#7:219,321,2584,801	*xywh-#7:219,321,2584,801	*xywh-#7:219,321,2584,801	*
*ped	*	*	*
!	!	!LO:TX:a:B:t=Coda.	!LO:DY:a=2
8BB- 8BBB-/	4ryy	4r	f
8r	.	.	.
(4g/	[4c [4A-X\	(4gg [<4cc [4a-X\	.
=114	=114	=114	=114
*	*	*^	*
*Xped	*	*	*	*
*	*	*	*xywh-#7:219,321,2584,801	*
12f/L	8c] 8A-\]	12ff/L	8cc] 8a-\]	>
12e-/	.	12ee-/	.	.
.	4.ryy	.	4.ryy	.
12d/J	.	12dd/J	.	.
12c/L	.	12cc/L	.	.
12d/	.	12dd/	.	.
12e-/J)	.	12ee-/J)	.	]
*v	*v	*	*	*
=115	=115	=115	=115
8r	[2b- 2B-/	4r	pp
16AA/LL	.	.	.
16BB-/JJ	.	.	.
16C/LL	.	[4f#X [4d\	.
16BB-/	.	.	.
16AA/	.	.	.
16BB-/JJ	.	.	.
=116	=116	=116	=116
16C/LL	2b-] 2B-/	4f#] 4d\]	.
16BB-/	.	.	.
16AA/	.	.	.
16BB-/JJ	.	.	.
16C/LL	.	4g 4e-\	.
16BB-/	.	.	.
16AA/	.	.	.
16BB-/JJ	.	.	.
*	*v	*v	*
=117	=117	=117
*ped	*	*
!	!	!LO:DY:a=2
8BB- 8BBB-/	4r	f
8r	.	.
4d [4G [4E-^\	4dd [4g [4e-^>/	.
!!linebreak:original
=118	=118	=118
*^	*^	*
*xywh-#7:291,1064,2457,665	*xywh-#7:291,1064,2457,665	*xywh-#7:291,1064,2457,665	*xywh-#7:291,1064,2457,665	*
*Xped	*	*	*	*
(12c/L	8G] 8E-\]	(12cc/L	8g] 8e-\]	.
12B-/	.	12b-/	.	>
.	4.ryy	.	4.ryy	.
12A/J	.	12a/J	.	.
12G/L	.	12g/L	.	.
12A/	.	12a/	.	.
12B-/J)	.	12b-/J)	.	]
*v	*v	*	*	*
=119	=119	=119	=119
!	!	!	!LO:DY:rj
8rAA	[2f 2F<^/	4r	pp
16AA\LL	.	.	.
16BB-\JJ	.	.	.
16C\LL	.	[4c#X [4A/	.
16BB-\	.	.	.
16AA\	.	.	.
16BB-\JJ	.	.	.
=120	=120	=120	=120
!	!	!	!LO:DY:rj
16C\LL	2f] 2F</	4c#] 4A/]	pp
16BB-\	.	.	.
16AA\	.	.	.
16BB-\JJ	.	.	.
16C\LL	.	4d 4B-/	.
16BB-\	.	.	.
16AA\	.	.	.
16BB-\JJ	.	.	.
=121	=121	=121	=121
*^	*	*	*
*ped	*	*	*	*
!	!	!	!	!LO:DY:a=2
8BB- 8BBB-/	4ryy	4r	4ryy	f
8r	.	.	.	.
*	*xywh-#7:291,1064,2457,665	*	*	*
4B-/	[4E- [4C\	4b-/	[4e- [4c\	.
=122	=122	=122	=122	=122
*Xped	*	*	*	*
(12A-X/L	8E-] 8C\]	(12a-X/L	8e-] 8c\]	.
!	!	!	!	!LO:HP:t=dimin.
12G-X/	.	12g-X/	.	>
.	4.ryy	.	4.ryy	.
12F/J	.	12f/J	.	.
12E-/L	.	12e-/L	.	.
12F/	.	12f/	.	.
12G-/J	.	12g-/J	.	.
*v	*v	*	*	*
*	*v	*v	*
!!linebreak:original
=123	=123	=123
*xywh-#7:183,1670,2625,583	*xywh-#7:183,1670,2625,583	*
12B-\L	12b-/L	>
12G-X\	12g-X/	.
12F\J	12f/J	.
12E-\L	12e-/L	.
12F\	12f/	.
12G-\J	12g-/J	]
=124	=124	=124
12B-\L	12b-/L	.
12G-X\	12g-X/	.
12F\J	12f/J	.
12E-\L	12e-/L	.
12F\	12f/	.
12G-\J)	12g-/J)	.
=125	=125	=125
8r	2f 2F^>/	pp
(16AA/LL	.	.
16BB-/JJ	.	.
16C/LL	.	.
16BB-/	.	.
16AA/	.	.
16BB-/JJ)	.	.
=126	=126	=126
(16C/LL	(2B- 2G-X/	.
16BB-/	.	.
16AA/	.	.
16BB-/JJ	.	.
16C/LL	.	.
16BB-/	.	.
16AA/	.	.
16BB-/JJ	.	.
!!linebreak:original
=127	=127	=127
*xywh-#7:264,2286,2462,624	*xywh-#7:264,2286,2462,624	*
16C/LL	4f 4F/	.
16BB-/	.	.
16AA/	.	.
16BB-/JJ	.	.
16C/LL	4B- 4Gn/	.
16BB-/	.	.
16AA/	.	.
16BB-/JJ	.	.
=128	=128	=128
16C/LL	4f 4F/	.
16BB-/	.	.
16AA/	.	.
16BB-/JJ	.	.
16C/LL	4e- 4A/)	.
16BB-/	.	.
16AA/	.	.
16BB-/JJ)	.	.
=129	=129	=129
8BBB-/	8d 8B-/	.
8r	8r	.
!	!LO:TX:b:i:t=leggierissimo	!
(16C#X\LL	(16A/LL	.
16D\	16B-/	.
16En\	16c#X/	.
16F\JJ	16d/JJ	.
=130	=130	=130
16A\LL	16c#X/LL	.
16B-\	16d/	.
16c#X\	16en/	.
16d\JJ	16f/JJ	.
*clefG2	*	*
16c#X/LL	16a\LL	.
16d/	16b-\	.
16en/	16cc#X\	.
16f/JJ)	16dd\JJ)	.
!!linebreak:original
=131	=131	=131
*xywh-#7:224,2874,2647,606	*xywh-#7:224,2874,2647,606	*
(16a\LL	(16cc#X\LL	.
16b-\	16dd\	.
16cc#X\	16een\	.
16dd\JJ	16ff\JJ	.
16cc#\LL	16aa\LL	.
16dd\	16bb-\	.
16een\	16ccc#X\	.
16ff\JJ	16ddd\JJ	.
=132	=132	=132
16aa\LL	16ccc#X\LL	.
16bb-\	16ddd\	.
16ccc#X\	16eeen\	.
16ddd\JJ	16fff\JJ	.
*	*8va	*
16ccc#\LL	16aaa\LL	.
16ddd\	16bbb-\	.
16eeen\	16cccc#X\	.
16fff\JJ	16dddd\JJ	.
=133	=133	=133
8ddd\)	8bbb-\)	.
*	*X8va	*
8r	8r	.
4r	4r	.
*clefF4	*	*
=134	=134	=134
8e- 8c 8F\	8ff 8a 8f\	pp
8r	8r	.
4r	4r	.
=135	=135	=135
8BB- 8BBB-/	8bb- 8dd 8b-\	.
8r	8r	.
4r	4r	.
==	==	==
*-	*-	*-
!!!system-decoration: {(s1,s2)}
!!!RDF**kern: > = above
!!!RDF**kern: < = below
!!!ENC: Katarzyna Serwa
!!!END: 2022-03-18
!!!ENC: Filip Voros
!!!END: 2022-03-13
!!!IIIF: https://polona.pl/iiif/item/Mzg2MTYzNDQ/manifest.json
!!!ENC-iiif: Mateusz Mrugas
!!!END-iiif: 2022-08-31
!!!YEC: Copyright 2022 Narodowy Instytut Fryderyka Chopina (https://polishscores.org)
!!!YEM: License CC-BY-4.0 (https://creativecommons.org/licenses/by/4.0)
